presets/Jungod Urban Teal v1.lrtemplate
s = {
	id = "E7046A5D-F3B0-43F0-9319-0C61D09B1CF8",
	internalName = "Jungod Urban Teal v1",
	title = "Jungod Urban Teal v1",
	type = "Develop",
	value = {
		Blacks2012 = 48,
		Clarity2012 = -15,
		Contrast2012 = -8,
		Exposure2012 = -0.6,
		Highlights2012 = -62,
		HueAdjustmentAqua = 30,
		HueAdjustmentBlue = -44,
		HueAdjustmentGreen = -38,
		HueAdjustmentOrange = -4,
		HueAdjustmentRed = 10,
		HueAdjustmentYellow = -8,
		LuminanceAdjustmentAqua = 32,
		LuminanceAdjustmentBlue = 5,
		LuminanceAdjustmentGreen = 28,
		LuminanceAdjustmentOrange = 5,
		LuminanceAdjustmentRed = -15,
		LuminanceAdjustmentYellow = 5,
		ParametricDarks = -40,
		ParametricHighlights = -8,
		ParametricLights = 8,
		Saturation = -16,
		SaturationAdjustmentAqua = -18,
		SaturationAdjustmentGreen = -48,
		SaturationAdjustmentOrange = -15,
		SaturationAdjustmentRed = -18,
		Shadows2012 = 70,
		Temperature = 7500,
		Texture = -5,
		Tint = 28,
		ToneCurveName2012 = "Custom",
		ToneCurvePV2012 = {
			33,
			33,
			79,
			72,
			128,
			131,
			192,
			198,
			255,
			228,
		},
		ToneCurvePV2012Blue = {
			0,
			0,
			44,
			24,
			115,
			127,
			181,
			203,
			255,
			255,
		},
		ToneCurvePV2012Green = {
			0,
			0,
			44,
			24,
			115,
			127,
			181,
			203,
			255,
			255,
		},
		ToneCurvePV2012Red = {
			0,
			0,
			44,
			24,
			115,
			127,
			182,
			198,
			255,
			255,
		},
		WhiteBalance = "Auto",
		Whites2012 = -45,
	},
	version = 0,
}
